X: 55
T: Polska frn Mora
O: Mora, Dalarna
Z: Transcribed to abcby Jon Magnusson 080526
R: Polska
M: 3/4
L: 1/8
K: A
E2 =G2 B>d|dc A2- A>c|(3:2:4 e2 e=g f2 d>B|(3:2:3 d2f2e2 c>A|
E2 =G2 B>d|dc A2- A>c|(3:2:4 e2 e=g f2 d>B|A2 a4:|
|:(3:2:5 e2cAce a2|(3:2:4 e2cAd2 f2|(3:2:5 d2BGBG (3EFG|(3:2:4 A2GAB2 c>d|
(3:2:5 e2cAce a2|(3:2:4 e2cAd2 f2|(3:2:5 d2BGBG (3EFG|A2 A4:|
